svg/icons/src/icon-connected-care.svg

<?xml version="1.0" encoding="UTF-8"?>
<svg width="32px" height="32px" viewBox="0 0 32 32" version="1.1" xmlns="http://www.w3.org/2000/svg" xmlns:xlink="http://www.w3.org/1999/xlink">
    <!-- Generator: Sketch 52.5 (67469) - http://www.bohemiancoding.com/sketch -->
    <title>icon-connected-care</title>
    <desc>Created with Sketch.</desc>
    <g id="icon-connected-care" stroke="none" stroke-width="1" fill="none" fill-rule="evenodd">
        <path d="M9.33342742,7.45403823 L14.6668548,7.45403823 C14.7504982,7.45403549 14.8306796,7.48820632 14.8895883,7.54896026 C14.9484969,7.6097142 14.981255,7.69202065 14.9805859,7.77759669 L14.9805859,9.0615588 C14.9805036,9.31077704 15.121401,9.53752511 15.342004,9.64319364 C15.4253849,9.68273149 15.5161477,9.70331903 15.6080479,9.70353986 C15.7549246,9.70413348 15.8972364,9.65135174 16.0096236,9.55460025 L19.7743959,6.34469497 C19.9173532,6.22272166 20,6.04210294 20,5.85165351 C20,5.66120409 19.9173532,5.48058536 19.7743959,5.35861206 L16.0096236,2.14870677 C15.8226038,1.98932842 15.5623692,1.95498762 15.3419448,2.06059925 C15.1215204,2.16621088 14.9806771,2.39271959 14.9805859,2.64174823 L14.9805859,3.92571034 C14.9805859,4.10298851 14.8401237,4.24670087 14.6668548,4.24670087 L9.33342742,4.24670087 C6.38929016,4.25023847 4.00345759,6.69127744 4,9.70353986 L4,22.543161 C4.00345759,25.5554234 6.38929016,27.9964624 9.33342742,28 C10.1997717,28 10.9020825,27.2814382 10.9020825,26.3950474 C10.9020825,25.5086565 10.1997717,24.7900947 9.33342742,24.7900947 C8.12111877,24.7886796 7.13869337,23.7835216 7.13731025,22.543161 L7.13731025,9.70353986 C7.13730946,8.46217656 8.12013952,7.45545531 9.33342742,7.45403823 Z" id="Path" fill="#2333FF"></path>
        <path d="M16.9903764,29.8484938 C17.1024103,29.9461712 17.2447585,29.9998762 17.3919521,30 C17.4838523,29.9997792 17.5746151,29.9791918 17.657996,29.9396543 C17.878599,29.8339867 18.0194964,29.6072407 18.0194141,29.3580247 L18.0194141,28.0740741 C18.0194141,27.8967975 18.1598763,27.7530864 18.3331452,27.7530864 L23.6665726,27.7530864 C26.6107098,27.7495489 28.9965424,25.3085317 29,22.2962963 L29,9.45679012 C28.9965424,6.44455468 26.6107098,4.00353757 23.6665726,4 C22.8002283,4 22.0979175,4.71855534 22.0979175,5.60493827 C22.0979175,6.4913212 22.8002283,7.20987654 23.6665726,7.20987654 C24.8788812,7.21129166 25.8613066,8.21644065 25.8626898,9.45679012 L25.8626898,22.2962963 C25.8613066,23.5366458 24.8788812,24.5417948 23.6665726,24.5432099 L18.3331452,24.5432099 C18.1598763,24.5432099 18.0194141,24.3994988 18.0194141,24.2222222 L18.0194141,22.9382716 C18.0193229,22.6892452 17.8784796,22.4627385 17.6580552,22.3571278 C17.4376308,22.2515171 17.1773962,22.2858576 16.9903764,22.4452346 L13.2256041,25.6551111 C13.0826468,25.7770833 13,25.9577004 13,26.1481481 C13,26.3385959 13.0826468,26.519213 13.2256041,26.6411852 L16.9903764,29.8484938 Z" id="Path" fill="#2333FF"></path>
    </g>
</svg>

<svg height="32" width="32" xmlns="http://www.w3.org/2000/svg"><path d="M9.333 7.454h5.334a.31.31 0 0 1 .223.095c.058.06.091.143.09.229v1.284c0 .249.141.476.362.581a.612.612 0 0 0 .668-.089l3.764-3.21a.648.648 0 0 0 0-.985l-3.764-3.21a.616.616 0 0 0-.668-.088.643.643 0 0 0-.361.58v1.285c0 .177-.14.32-.314.32H9.333C6.39 4.25 4.003 6.692 4 9.705v12.84c.003 3.011 2.39 5.452 5.333 5.456.867 0 1.57-.719 1.57-1.605s-.703-1.605-1.57-1.605c-1.212-.001-2.194-1.006-2.196-2.247V9.703c0-1.24.983-2.248 2.196-2.249zm7.657 22.394a.612.612 0 0 0 .668.092.643.643 0 0 0 .361-.582v-1.284c0-.177.14-.32.314-.32h5.334c2.944-.004 5.33-2.445 5.333-5.458V9.456c-.003-3.01-2.39-5.451-5.333-5.456-.867 0-1.57.719-1.57 1.605s.703 1.605 1.57 1.605c1.212.001 2.194 1.006 2.196 2.247v12.84c-.002 1.24-.984 2.245-2.196 2.246h-5.334a.317.317 0 0 1-.314-.32v-1.285a.643.643 0 0 0-.36-.58.616.616 0 0 0-.669.087l-3.764 3.21a.648.648 0 0 0 0 .986z" fill="#2333ff" fill-rule="evenodd"/></svg>
